images/h-logo.svg

<svg width="670" height="768" fill="none" xmlns="http://www.w3.org/2000/svg"><g clip-path="url(#a)" fill-rule="evenodd" clip-rule="evenodd"><path d="M235.602 326.809h179.716c51.626 0 94.713 22.023 121.503 59.239 26.77 37.217 27.596 99.316 11.985 147.898l-19.959 62.022c-8.335 25.897-47.364 148.371-54.975 172.032h-98.043s1.499 1.313 83.401-253.277c7.231-22.466 11.361-58.935 0-74.707-11.341-15.77-30.477-25.104-55.796-25.104H256.531c-28.845 0-54.407 18.761-63.33 46.47l42.401-134.573Z" fill="url(#b)"/><path d="M95.49 768H-.355C81.22 511.848 163.721 255.997 245.777 0h95.714a651.39 651.39 0 0 1-1.226 3.851C207.49 412.384 252.782 274.42 95.49 768Z" fill="#F0145A"/></g><defs><linearGradient id="b" x1="501.577" y1="767.999" x2="258.085" y2="496.649" gradientUnits="userSpaceOnUse"><stop stop-color="#F0145A"/><stop offset="1" stop-color="#693264"/></linearGradient><clipPath id="a"><path fill="#fff" d="M0 0h669.957v768H0z"/></clipPath></defs></svg>

<svg width="670" height="768" viewBox="0 0 670 768" fill="none" xmlns="http://www.w3.org/2000/svg">
<g clip-path="url(#clip0_22728_11631)">
<path fill-rule="evenodd" clip-rule="evenodd" d="M235.602 326.809H415.318C466.944 326.809 510.031 348.832 536.821 386.048C563.591 423.265 564.417 485.364 548.806 533.946L528.847 595.968C520.512 621.865 481.483 744.339 473.872 768H375.829C375.829 768 377.328 769.313 459.23 514.723C466.461 492.257 470.591 455.788 459.23 440.016C447.889 424.246 428.753 414.912 403.434 414.912H256.531C227.686 414.912 202.124 433.673 193.201 461.382L235.602 326.809Z" fill="url(#paint0_linear_22728_11631)"/>
<path fill-rule="evenodd" clip-rule="evenodd" d="M95.4901 768H-0.35498C81.2199 511.848 163.721 255.997 245.777 0H341.491C341.088 1.2803 340.679 2.564 340.265 3.85101C207.49 412.384 252.782 274.42 95.4901 768Z" fill="#F0145A"/>
</g>
<defs>
<linearGradient id="paint0_linear_22728_11631" x1="501.577" y1="767.999" x2="258.085" y2="496.649" gradientUnits="userSpaceOnUse">
<stop stop-color="#F0145A"/>
<stop offset="1" stop-color="#693264"/>
</linearGradient>
<clipPath id="clip0_22728_11631">
<rect width="669.957" height="768" fill="white"/>
</clipPath>
</defs>
</svg>
